symbols/web/toys/materialsymbolssharp/toys_wght300grad200fill1_24px.svg

<svg xmlns="http://www.w3.org/2000/svg" height="24" width="24"><path d="M6.925 20.6q-1.15 0-1.987-.75-.838-.75-1.038-1.9H1.75v-7.475h2.925l-1.825-1.8-1 1L.325 8.15l3.5-3.5 1.55 1.525-1 1L5.7 8.5l1.6-4.525h9.55l2.175 6.375h3.325v7.6H20.2q-.2 1.15-1.05 1.9-.85.75-2.025.75-.95 0-1.737-.575-.788-.575-1.138-1.45h-4.4q-.35.9-1.15 1.463-.8.562-1.775.562ZM7.4 10.225h3.55v-4.1H8.775Zm5.7 0h3.6l-1.375-4.1H13.1ZM6.95 18.45q.4 0 .688-.287.287-.288.287-.688 0-.4-.287-.687-.288-.288-.688-.288-.4 0-.687.288-.288.287-.288.687 0 .4.288.688.287.287.687.287Zm10.2 0q.4 0 .687-.287.288-.288.288-.688 0-.4-.288-.687-.287-.288-.687-.288-.4 0-.688.288-.287.287-.287.687 0 .4.287.688.288.287.688.287Z"/></svg>

<svg xmlns="http://www.w3.org/2000/svg" height="24" width="24"><path d="M6.925 20.6Q5.775 20.6 4.938 19.85Q4.1 19.1 3.9 17.95H1.75V10.475H4.675L2.85 8.675L1.85 9.675L0.325 8.15L3.825 4.65L5.375 6.175L4.375 7.175L5.7 8.5L7.3 3.975H16.85L19.025 10.35H22.35V17.95H20.2Q20 19.1 19.15 19.85Q18.3 20.6 17.125 20.6Q16.175 20.6 15.388 20.025Q14.6 19.45 14.25 18.575H9.85Q9.5 19.475 8.7 20.038Q7.9 20.6 6.925 20.6ZM7.4 10.225H10.95V6.125H8.775ZM13.1 10.225H16.7L15.325 6.125H13.1ZM6.95 18.45Q7.35 18.45 7.638 18.163Q7.925 17.875 7.925 17.475Q7.925 17.075 7.638 16.788Q7.35 16.5 6.95 16.5Q6.55 16.5 6.263 16.788Q5.975 17.075 5.975 17.475Q5.975 17.875 6.263 18.163Q6.55 18.45 6.95 18.45ZM17.15 18.45Q17.55 18.45 17.837 18.163Q18.125 17.875 18.125 17.475Q18.125 17.075 17.837 16.788Q17.55 16.5 17.15 16.5Q16.75 16.5 16.462 16.788Q16.175 17.075 16.175 17.475Q16.175 17.875 16.462 18.163Q16.75 18.45 17.15 18.45Z"/></svg>
